icons/git-branch-16.svg

<svg xmlns="http://www.w3.org/2000/svg" width="16" height="16" viewBox="0 0 16 16">
  <defs/>
  <path d="M9.5,3.25 C9.5,2.106 10.359,1.144 11.496,1.015 C12.633,0.886 13.686,1.631 13.943,2.745 C14.199,3.86 13.579,4.991 12.5,5.372 L12.5,6 C12.5,7.381 11.381,8.5 10,8.5 L6,8.5 C5.448,8.5 5,8.948 5,9.5 L5,10.628 C6.034,10.993 6.654,12.05 6.469,13.131 C6.283,14.211 5.346,15.001 4.25,15.001 C3.154,15.001 2.217,14.211 2.031,13.131 C1.846,12.05 2.466,10.993 3.5,10.628 L3.5,5.372 C2.467,5.007 1.847,3.95 2.032,2.87 C2.218,1.79 3.154,1.001 4.25,1.001 C5.346,1.001 6.282,1.79 6.468,2.87 C6.653,3.95 6.033,5.007 5,5.372 L5,7.208 C5.315,7.07 5.656,7 6,7 L10,7 C10.552,7 11,6.552 11,6 L11,5.372 C10.101,5.054 9.5,4.204 9.5,3.25 Z M3.5,3.25 C3.5,3.664 3.836,4 4.25,4 C4.664,4 5,3.664 5,3.25 C5,2.836 4.664,2.5 4.25,2.5 C3.836,2.5 3.5,2.836 3.5,3.25 Z M11.75,2.5 C11.336,2.5 11,2.836 11,3.25 C11,3.664 11.336,4 11.75,4 C12.164,4 12.5,3.664 12.5,3.25 C12.5,2.836 12.164,2.5 11.75,2.5 Z M4.25,12 C3.836,12 3.5,12.336 3.5,12.75 C3.5,13.164 3.836,13.5 4.25,13.5 C4.664,13.5 5,13.164 5,12.75 C5,12.336 4.664,12 4.25,12 Z"/>
</svg>

<svg xmlns="http://www.w3.org/2000/svg" width="16" height="16" viewBox="0 0 16 16"><path d="M9.5 3.25a2.25 2.25 0 113 2.122V6A2.5 2.5 0 0110 8.5H6a1 1 0 00-1 1v1.128a2.251 2.251 0 11-1.5 0V5.372a2.25 2.25 0 111.5 0v1.836A2.493 2.493 0 016 7h4a1 1 0 001-1v-.628A2.25 2.25 0 019.5 3.25zm-6 0a.75.75 0 101.5 0 .75.75 0 00-1.5 0zm8.25-.75a.75.75 0 100 1.5.75.75 0 000-1.5zM4.25 12a.75.75 0 100 1.5.75.75 0 000-1.5z"/></svg>
